X: 1763
T: The Old Pipe Trick
B: australian traditional tunes wiki
M:4/4
L:1/8
R: Strathspey
Q: 1/4=100
K:D
V:1 
|:"A"e<AA2A2a>f|e<AA2"G"B/c/B/A/ d>f|"A"e<AA2e<A a>f|e<d "G"B>d "A"c>A A>f|
e<AA2e<A a>f|e<AA2"G"B/c/B/A/ d>f|"A"e<AA2e<A a>f|e<d "G"B>d "A"c>A A>f|
"A"a/b/a/e/ c<e f/g/f/e/ c<e|a/b/a/f/ e>c "G"d>BB2|"A"a/b/a/e/ c<e e/f/e/c/ a>f|e>d "G"B>d "A"c>AA2|
"A"a/b/a/e/ c<e f/g/f/e/ c<e|a>e e>c "G"d<BB2|"A"a>e c<e e/f/e/c/ a>f|e>d "G"B>d "A"c<AA2:|
|:"A"e<cc2e>c "G"d>f|"A"e<AA2 "G"B/c/B/A/ d>f|"A"e<AA2 e<A "G"d>f|e>d B>d "A"c<A A>f|
"A"e<AA2e<A "G"d>f|"A"e<AA2 "G"B>A d>f|"A"e<AA2 e<A a>f|e/f/e/c/"G" B>d "A"c<AA2:|
% abcbook-tune_id 6342d53a93aa9646c1fe79d8


% abcbook-boost 0
% abcbook-tablature 
% abcbook-transpose 
% abcbook-lastupdated 1665324382370
% abcbook-soundfonts 
% abcbook-repeats 1
% NFF Book 2013

